src/icons/solid/users/supervisor.svg

<svg width="24" height="24" viewBox="0 0 24 24" fill="none" xmlns="http://www.w3.org/2000/svg">
<g clip-path="url(#clip0_5033_1580)">
<path d="M14.9453 13.4149C15.3017 13.2236 15.7111 13.1726 16.1094 13.2733H16.0986C19.4949 14.1392 22 17.1501 22 20.7244C21.9999 21.983 20.9514 22.9998 19.6621 22.9998H4.33789C3.04862 22.9998 2.00007 21.983 2 20.7244C2 17.14 4.51588 14.1392 7.91211 13.2733C8.29987 13.1727 8.71888 13.2236 9.0752 13.4149C9.94522 13.878 10.9416 14.1395 12.0107 14.1395C13.0797 14.1394 14.0754 13.8779 14.9453 13.4149Z" fill="#3C3B44"/>
<path fill-rule="evenodd" clip-rule="evenodd" d="M12.0215 0.999817C15.1556 0.999833 17.6924 3.43657 17.6924 6.44708C17.6923 9.45754 15.1556 11.8943 12.0215 11.8943C8.88735 11.8943 6.35066 9.45755 6.35059 6.44708C6.35059 3.43656 8.88731 0.999817 12.0215 0.999817ZM11.749 5.40021C10.3864 5.03774 8.48898 5.06754 7.49316 5.21857C7.36738 5.24877 7.36757 5.75184 7.46191 5.78204C7.65057 5.87267 7.74512 6.0545 7.74512 6.0545C7.74809 6.06318 7.81139 6.25173 7.96484 6.89044C8.11111 7.54197 8.51735 7.66391 8.52051 7.66486C8.52051 7.66486 9.00244 7.78591 9.56836 7.78595C10.1344 7.78595 10.4808 7.75625 10.8477 7.57501C11.225 7.39377 11.3711 6.91974 11.3711 6.91974C11.3757 6.90969 11.5613 6.50272 11.6855 6.11505C11.7065 5.99423 12.3357 5.99423 12.3672 6.11505C12.4801 6.48969 12.6634 6.90285 12.6709 6.91974C12.6709 6.91974 12.8284 7.39378 13.1953 7.57501C13.5622 7.75623 13.9083 7.78595 14.4639 7.78595C15.0194 7.78594 15.5225 7.66486 15.5225 7.66486C15.5277 7.66364 15.9219 7.57017 16.0781 6.89044C16.2354 6.20577 16.2881 6.06427 16.2881 6.06427C16.2918 6.05728 16.3857 5.88166 16.5703 5.79279H16.5918C16.7176 5.75252 16.7175 5.21883 16.5918 5.21857C15.6065 5.06754 13.6986 5.0478 12.3359 5.40021H11.749Z" fill="#3C3B44"/>
</g>
<defs>
<clipPath id="clip0_5033_1580">
<rect width="24" height="24" fill="white"/>
</clipPath>
</defs>
</svg>

<svg xmlns="http://www.w3.org/2000/svg" width="24" height="24" fill="none" viewBox="0 0 24 24"><g fill="currentColor" clip-path="url(#a)"><path d="M14.945 13.415a1.6 1.6 0 0 1 1.164-.142h-.01C19.495 14.14 22 17.15 22 20.724 22 21.983 20.951 23 19.662 23H4.338C3.048 23 2 21.983 2 20.724c0-3.584 2.516-6.585 5.912-7.45.388-.101.807-.05 1.163.14.87.464 1.867.726 2.936.726a6.2 6.2 0 0 0 2.934-.725"/><path fill-rule="evenodd" d="M12.022 1c3.134 0 5.67 2.437 5.67 5.447s-2.536 5.447-5.67 5.447S6.35 9.458 6.35 6.447C6.35 3.437 8.887 1 12.02 1m-.273 4.4c-1.363-.362-3.26-.332-4.256-.181-.126.03-.125.533-.031.563a.7.7 0 0 1 .283.272c.003.01.066.198.22.836.146.652.552.774.556.775 0 0 .481.12 1.047.12s.913-.029 1.28-.21c.377-.181.523-.655.523-.655.005-.01.19-.417.314-.805.021-.12.65-.12.682 0 .113.375.296.788.304.805 0 0 .157.474.524.655s.713.21 1.269.21 1.059-.12 1.059-.12c.005-.001.399-.095.555-.775.157-.684.21-.826.21-.826a.7.7 0 0 1 .282-.271h.022c.126-.04.126-.574 0-.574-.985-.151-2.893-.171-4.256.181z" clip-rule="evenodd"/></g><defs><clipPath id="a"><path fill="currentColor" d="M0 0h24v24H0z"/></clipPath></defs></svg>
